src/app/assets/electric.svg

<svg viewBox="0 0 7.9656512 7.9656004" xmlns="http://www.w3.org/2000/svg">
  <g>
    <path
      d="M 4.652421,1.8908833 5.4497045,4.4643937 4.3196664,4.4827793 4.8901759,6.4089542 2.0097918,3.4020991 3.376308,3.3589436 2.7394006,1.8822011 Z M 3.9828256,0.0612345 c -2.1658426,0 -3.9215516,1.75585 -3.9215516,3.921807 0,2.1659567 1.755709,3.9212962 3.9215516,3.9212962 2.1658428,0 3.921552,-1.7555944 3.921552,-3.9212962 0,-2.1657016 -1.7557092,-3.921807 -3.921552,-3.921807"
    />
    <path
      d="M 3.9824219,0 C 1.7834649,0 0,1.7833549 0,3.9824219 c 0,2.1990667 1.7834745,3.9824219 3.9824219,3.9824218 2.1989523,0 3.9824218,-1.7836061 3.9824218,-3.9824218 C 7.9648437,1.7836064 6.1813839,0 3.9824219,0 Z m 0,0.12304687 c 2.1327192,0 3.8613281,1.72679163 3.8613281,3.85937503 0,2.1325836 -1.7285992,3.8613281 -3.8613281,3.8613281 -2.1327335,0 -3.85937503,-1.7284857 -3.85937503,-3.8613281 0,-2.1328427 1.72665113,-3.85937502 3.85937503,-3.85937503 z M 2.6464844,1.8203125 3.2851563,3.3007813 1.8710937,3.3457031 5.0214844,6.6328125 4.4023437,4.5429687 5.5332031,4.5234375 4.6972656,1.8300781 H 4.6523437 Z M 2.8320313,1.9433594 4.6074219,1.953125 5.3671875,4.4042969 4.2382812,4.421875 4.7617187,6.1875 2.1503906,3.4589844 3.46875,3.4179688 Z"
    />
  </g>
</svg>

<svg xmlns="http://www.w3.org/2000/svg" viewBox="0 0 7.966 7.966"><path d="m4.652 1.89.798 2.574-1.13.019.57 1.926-2.88-3.007 1.366-.043-.637-1.477ZM3.982.062a3.922 3.922 0 1 0 .001 7.844 3.922 3.922 0 0 0 0-7.844"/><path d="M3.982 0a3.983 3.983 0 1 0 .001 7.966 3.983 3.983 0 0 0 0-7.966m0 .123a3.86 3.86 0 1 1 0 7.72 3.86 3.86 0 0 1-3.859-3.86 3.86 3.86 0 0 1 3.86-3.86M2.646 1.82l.64 1.48-1.415.046 3.15 3.287-.619-2.09 1.131-.02-.836-2.693h-.045Zm.186.123 1.775.01.76 2.451-1.129.018.524 1.766L2.15 3.459l1.319-.041Z"/></svg>
